wagtail_fa_svg/templates/wagtail-fa-svg/v6/solid/crop-simple.svg

<svg id="icon-crop-simple" viewbox="0 0 512 512" xmlns="http://www.w3.org/2000/svg"><!--! Font Awesome Free 6.6.0 by @fontawesome - https://fontawesome.com License - https://fontawesome.com/license/free (Icons: CC BY 4.0, Fonts: SIL OFL 1.1, Code: MIT License) Copyright 2024 Fonticons, Inc. --><path d="M128 32c0-17.7-14.3-32-32-32S64 14.3 64 32l0 32L32 64C14.3 64 0 78.3 0 96s14.3 32 32 32l32 0 0 256c0 35.3 28.7 64 64 64l224 0 0-64-224 0 0-352zM384 480c0 17.7 14.3 32 32 32s32-14.3 32-32l0-32 32 0c17.7 0 32-14.3 32-32s-14.3-32-32-32l-32 0 0-256c0-35.3-28.7-64-64-64L160 64l0 64 224 0 0 352z"></path></svg>

<svg id="icon-crop-simple" viewbox="0 0 512 512" xmlns="http://www.w3.org/2000/svg"><!--! Font Awesome Free 6.5.2 by @fontawesome - https://fontawesome.com License - https://fontawesome.com/license/free (Icons: CC BY 4.0, Fonts: SIL OFL 1.1, Code: MIT License) Copyright 2024 Fonticons, Inc. --><path d="M128 32c0-17.7-14.3-32-32-32S64 14.3 64 32V64H32C14.3 64 0 78.3 0 96s14.3 32 32 32H64V384c0 35.3 28.7 64 64 64H352V384H128V32zM384 480c0 17.7 14.3 32 32 32s32-14.3 32-32V448h32c17.7 0 32-14.3 32-32s-14.3-32-32-32H448l0-256c0-35.3-28.7-64-64-64L160 64v64l224 0 0 352z"></path></svg>
